X:1
T:In the Hall of the Mountain King
T:In the Hall of the Mountain King
T:Peer Gynt
T:Edvard Grieg
T:http://julienv.be
C:Edvard Grieg
Z:http://julienv.be
%%score { 1 | 2 }
L:1/8
Q:1/4=160
M:4/4
K:C
V:1 treble nm="Piano" snm="Pno."
V:2 bass 
V:1
"^\n" A2 B2 c2 d2 | !>!.e2 .c2 .e2 z2 | !>!.^d2 .B2 .d2 z2 | !>!.d2 ._B2 .d2 z2 | .A2 .B2 .c2 .d2 | %5
 .e2 .c2 .e2 a2 | g2 e2 c2 e2 | g8 |: A2 B2 c2 d2 | !>!.e2 .c2 .e2 z2 | !>!.^d2 .B2 .d2 z2 | %11
 !>!.d2 ._B2 .d2 z2 | .A2 .B2 .c2 .d2 | .e2 .c2 .e2 a2 | g2 e2 c2 e2 | g8 :| .[EAc] z z2 z4 |] %17
V:2
 .A,,2 z2 .E,2 z2 | .A,,2 z2 .E,2 z2 | .B,,2 z2 .^D,2 z2 | ._B,,2 z2 .D,2 z2 | .A,,2 z2 .E,2 z2 | %5
 .A,,2 z2 .E,2 z2 | .C,2 z2 .E,2 z2 | C,4 C,2 B,,2 |: A,,2 [C,E,]2 A,,2 [C,E,]2 | %9
 A,,2 [C,E,]2 A,,2 [C,E,]2 | B,,2 [^D,^F,]2 B,,2 [D,F,]2 | _B,,2 [D,F,]2 B,,2 [D,F,]2 | %12
 A,,2 [C,E,]2 A,,2 [C,E,]2 | A,,2 [C,E,]2 A,,2 [C,E,]2 | C,2 [E,G,]2 C,2 [E,G,]2 | C,4 C,2 B,,2 :| %16
 .[A,,A,] z z2 z4 |] %17

